X:68
T: Die Rheinbraut
N: Q0047E
O: Mitteleuropa, Deutschland (DDR) , Thueringen, Greiz
N: Grundton in der zweigestrichenen Oktave.
R: Ballade, Braut - Werbung, Todesahnung, Tod
M: 6/8
L: 1/8
K: D
A, | A,2A,E2F | EDz3
A, | A,2A,E2F | EDz3
D | D2DE2D | C2B,D2
B, | B,2A,C2B, | A,2G,F,2
D | D2DE2D | C2B,D2
B, | B,2A,C2B, | A,2G,F,2

